third_party/noto/noto_2/emoji_u1f685.svg

<svg enable-background="new 0 0 128 128" version="1.1" viewBox="0 0 128 128" xmlns="http://www.w3.org/2000/svg"><rect x="82.18" y="98.37" width="41.87" height="16.43" fill="#455A64"/><circle cx="82.66" cy="110.64" r="13.34" fill="#455A64"/><circle cx="82.66" cy="110.64" r="8.9" fill="#607D8B"/><path d="M71.3,104.66v5.98h8.18c0,1.75,1.42,3.17,3.17,3.17s3.17-1.42,3.17-3.17h7.63v-5.98H71.3z" fill="#455A64"/><path d="m20.16 87.29h-0.15s-4.7 8.11-7.59 14.56c-1.83 4.08-3.44 9.06-4.38 12.18-0.44 1.47 0.51 3 1.86 3h47.56l7.88-9.57h58.7v-20.17h-103.88z" fill="#0277BD"/><path d="m17.84 90.41-5.42 11.44 8-3.42c2.99-1.28 6.2-1.78 9.38-1.47 5.91 0.57 16.99 1.41 31.05 1.41h63.2v-6.64l-106.21-1.32z" fill="#004F84"/><path d="m113.62 4.49c-23.13 0.21-29.46 6.66-29.46 6.66l-18.97 18.93c-22.18 3.48-43.2 14.62-49.7 19.97-8.4 6.92-13.4 16.05-10.69 24.78 2.71 8.74 13.04 15.58 13.04 15.58s15.75 3.33 42.65 3.33h63.56v-89.33c-3.42 0.01-5.51 0.04-10.43 0.08z" fill="#E0E0E0"/><ellipse cx="29.52" cy="70.31" rx="6.03" ry="6.94" fill="#FFCA28"/><path d="m32.14 76.29c-2.87 0-5.2-2.68-5.2-5.98s2.33-5.98 5.2-5.98c0.18 0 0.34 0.04 0.51 0.06-0.91-0.64-1.98-1.02-3.13-1.02-3.33 0-6.03 3.11-6.03 6.94s2.7 6.94 6.03 6.94c1.15 0 2.22-0.38 3.13-1.02-0.17 0.02-0.33 0.06-0.51 0.06z" fill="#E2A610"/><path d="m96.43 51.82c-4.61 9.03 0.41 11.54 3.98 11.54h23.65v-30c-12.19 2.37-24.11 11.58-27.63 18.46z" fill="#0277BD"/><path d="m34.58 84.79c-24.33-4.16-30.23-15.68-30.52-16.08-0.06 2.19 0.23 4.58 1.1 7.17 2.94 8.66 12.68 14.53 12.68 14.53s15.75 3.33 42.65 3.33h63.56v-6.18c-25.49 0.25-72.19 0.19-89.47-2.77z" fill="#BDBDBD"/><path d="m63.74 36.75c3.81-0.28 10.24 0.52 10.25 6.1-2.26 7.31-31.29 10.07-36.31 5.64-2.79-7.14 21.51-11.74 26.06-11.74z" fill="#F5F5F5"/><polygon points="73.86 103.14 61.79 117.04 53.34 117.04 65.57 102.96" fill="#039BE5"/><polygon points="68.69 27.97 109.47 27.48 109.47 17.96 78.41 17.96" fill="#BAE2FD"/><path d="m98.38 16.28-19.41 0.07-2.48 2.47 19.08-0.15c0.57 0.15 0.89 0.75 0.7 1.3l-1.31 5.79c-0.24 0.68-0.88 1.14-1.61 1.14h-24.97l-3.02 3.02h44.17c0.93 0 1.69-0.76 1.69-1.69v-10.14c0-0.93-0.75-1.68-1.67-1.69l-11.17-0.12zm8.87 10.62h-9.3c-0.61 0-1.03-0.6-0.84-1.17l1.23-5.55c0.18-0.52 0.68-0.87 1.23-0.87l7.69 0.08c0.52 0.01 0.94 0.43 0.94 0.95v5.62c-0.01 0.52-0.43 0.94-0.95 0.94z" fill="#37474F"/><line x1="79.62" x2="67.65" y1="17.06" y2="29" fill="none" stroke="#37474F" stroke-miterlimit="10" stroke-width="2"/><path d="M12.97,86.49c1.13,1.04,2.18,1.91,3.02,2.56V49.66c-0.17,0.13-2.21,1.88-3.02,2.65V86.49z" fill="#82AEC0"/><path d="m12.97 77.17v9.32c1.13 1.04 2.18 1.91 3.02 2.56v-10.16c-1.1-0.57-2.1-1.14-3.02-1.72z" fill="#546E7A"/></svg>

<?xml version="1.0" encoding="utf-8"?>
<!-- Generator: Adobe Illustrator 25.2.3, SVG Export Plug-In . SVG Version: 6.00 Build 0)  -->
<svg version="1.1" id="Layer_5" xmlns="http://www.w3.org/2000/svg" xmlns:xlink="http://www.w3.org/1999/xlink" x="0px" y="0px"
	 viewBox="0 0 128 128" style="enable-background:new 0 0 128 128;" xml:space="preserve">
<g>
	<rect x="82.18" y="98.37" style="fill:#455A64;" width="41.87" height="16.43"/>
	<circle style="fill:#455A64;" cx="82.66" cy="110.64" r="13.34"/>
	<circle style="fill:#607D8B;" cx="82.66" cy="110.64" r="8.9"/>
	<path style="fill:#455A64;" d="M71.3,104.66v5.98h8.18c0,1.75,1.42,3.17,3.17,3.17s3.17-1.42,3.17-3.17h7.63v-5.98H71.3z"/>
	<path style="fill:#0277BD;" d="M20.16,87.29h-0.15c0,0-4.7,8.11-7.59,14.56c-1.83,4.08-3.44,9.06-4.38,12.18
		c-0.44,1.47,0.51,3,1.86,3h47.56l7.88-9.57c0,0,55.77,0,58.7,0V87.29H20.16z"/>
	<path style="fill:#004F84;" d="M17.84,90.41l-5.42,11.44l8-3.42c2.99-1.28,6.2-1.78,9.38-1.47c5.91,0.57,16.99,1.41,31.05,1.41
		c20.59,0,60.36,0,63.2,0v-6.64L17.84,90.41z"/>
	<g>
		<path style="fill:#E0E0E0;" d="M113.62,4.49c-23.13,0.21-29.46,6.66-29.46,6.66L65.19,30.08c-22.18,3.48-43.2,14.62-49.7,19.97
			C7.09,56.97,2.09,66.1,4.8,74.83c2.71,8.74,13.04,15.58,13.04,15.58s15.75,3.33,42.65,3.33c17.68,0,45.31,0,63.56,0V4.41
			C120.63,4.42,118.54,4.45,113.62,4.49z"/>
	</g>
	<ellipse style="fill:#FFCA28;" cx="29.52" cy="70.31" rx="6.03" ry="6.94"/>
	<path style="fill:#E2A610;" d="M32.14,76.29c-2.87,0-5.2-2.68-5.2-5.98c0-3.3,2.33-5.98,5.2-5.98c0.18,0,0.34,0.04,0.51,0.06
		c-0.91-0.64-1.98-1.02-3.13-1.02c-3.33,0-6.03,3.11-6.03,6.94c0,3.83,2.7,6.94,6.03,6.94c1.15,0,2.22-0.38,3.13-1.02
		C32.48,76.25,32.32,76.29,32.14,76.29z"/>
	<path style="fill:#0277BD;" d="M96.43,51.82c-4.61,9.03,0.41,11.54,3.98,11.54c1.05,0,11.65,0,23.65,0V33.36
		C111.87,35.73,99.95,44.94,96.43,51.82z"/>
	<path style="fill:#BDBDBD;" d="M34.58,84.79C10.25,80.63,4.35,69.11,4.06,68.71C4,70.9,4.29,73.29,5.16,75.88
		c2.94,8.66,12.68,14.53,12.68,14.53s15.75,3.33,42.65,3.33c17.68,0,45.31,0,63.56,0v-6.18C98.56,87.81,51.86,87.75,34.58,84.79z"/>
	<path style="fill:#F5F5F5;" d="M63.74,36.75c3.81-0.28,10.24,0.52,10.25,6.1c-2.26,7.31-31.29,10.07-36.31,5.64
		C34.89,41.35,59.19,36.75,63.74,36.75z"/>
	<polygon style="fill:#039BE5;" points="73.86,103.14 61.79,117.04 53.34,117.04 65.57,102.96 	"/>
	<polygon style="fill:#BAE2FD;" points="68.69,27.97 109.47,27.48 109.47,17.96 78.41,17.96 	"/>
	<path style="fill:#37474F;" d="M98.38,16.28l-19.41,0.07l-2.48,2.47l19.08-0.15c0.57,0.15,0.89,0.75,0.7,1.3l-1.31,5.79
		c-0.24,0.68-0.88,1.14-1.61,1.14H68.38l-3.02,3.02h44.17c0.93,0,1.69-0.76,1.69-1.69V18.09c0-0.93-0.75-1.68-1.67-1.69L98.38,16.28
		z M107.25,26.9h-9.3c-0.61,0-1.03-0.6-0.84-1.17l1.23-5.55c0.18-0.52,0.68-0.87,1.23-0.87l7.69,0.08c0.52,0.01,0.94,0.43,0.94,0.95
		v5.62C108.19,26.48,107.77,26.9,107.25,26.9z"/>
	<line style="fill:none;stroke:#37474F;stroke-width:2;stroke-miterlimit:10;" x1="79.62" y1="17.06" x2="67.65" y2="29"/>
	<path style="fill:#82AEC0;" d="M12.97,86.49c1.13,1.04,2.18,1.91,3.02,2.56V49.66c-0.17,0.13-2.21,1.88-3.02,2.65V86.49z"/>
	<path style="fill:#546E7A;" d="M12.97,77.17v9.32c1.13,1.04,2.18,1.91,3.02,2.56V78.89C14.89,78.32,13.89,77.75,12.97,77.17z"/>
</g>
</svg>
